svg/httpx.svg

<svg viewBox="0 0 20 20" xmlns="http://www.w3.org/2000/svg">
<rect width="100%" height="100%" fill="#1C1D34"/>
<path d="M18.9588 8.48534C19.0317 8.41134 18.9938 8.34386 18.9524 8.27639C18.7862 8.0061 18.5554 7.80423 18.2818 7.66107C17.5101 7.25696 16.6754 7.11454 15.8207 7.1028C15.2751 7.09535 14.7289 7.15667 14.1827 7.16413C13.5355 7.17308 12.8882 7.17196 12.2457 7.26367C11.8218 7.32425 11.394 7.36059 10.9757 7.46032C10.893 7.48008 10.8102 7.49946 10.7387 7.55203C10.6816 7.59397 10.6243 7.62174 10.6019 7.51419C10.5973 7.49238 10.5771 7.46964 10.5581 7.45641C10.5182 7.42882 10.5019 7.39638 10.5098 7.34643C10.5152 7.31101 10.4985 7.27336 10.4707 7.2564C10.4038 7.21539 10.4217 7.17252 10.4463 7.11324C10.5149 6.9479 10.4386 6.80083 10.2744 6.76765C10.1435 6.74118 10.1247 6.71117 10.161 6.57771C10.2414 6.28245 10.3706 6.00937 10.5211 5.74524C10.8613 5.1482 11.3095 4.63708 11.7497 4.11945C11.8914 3.9528 12.0239 3.77926 12.1476 3.59846C12.1647 3.57329 12.1862 3.54235 12.1569 3.51495C12.125 3.48494 12.0916 3.50507 12.0695 3.53191C12.0343 3.57441 12.0002 3.61896 11.973 3.66705C11.7351 4.08589 11.4131 4.44024 11.1147 4.81062C10.7723 5.23543 10.4715 5.68261 10.2469 6.18254C10.1927 6.30333 10.1559 6.43064 10.1148 6.56876C10.0865 6.48264 10.0898 6.38534 10.0001 6.35999C9.91031 6.38534 9.9136 6.48246 9.88532 6.56876C9.84446 6.43082 9.80761 6.30333 9.75325 6.18254C9.52868 5.68242 9.22786 5.23543 8.88545 4.81062C8.587 4.44024 8.26502 4.08589 8.02714 3.66705C7.99996 3.61896 7.96584 3.57441 7.93064 3.53191C7.90856 3.50507 7.87518 3.48494 7.84326 3.51495C7.81388 3.54235 7.83541 3.57329 7.85256 3.59846C7.97624 3.77926 8.10868 3.9528 8.25043 4.11945C8.69062 4.63708 9.13884 5.14838 9.47906 5.74524C9.62956 6.00937 9.75872 6.28245 9.83917 6.57771C9.87547 6.71099 9.85668 6.74118 9.7257 6.76765C9.56133 6.80083 9.48526 6.94772 9.55385 7.11324C9.57848 7.17252 9.59618 7.21539 9.52941 7.2564C9.50168 7.27336 9.48472 7.31101 9.49037 7.34643C9.49821 7.39638 9.48198 7.42863 9.44203 7.45641C9.42306 7.46964 9.40281 7.49238 9.39825 7.51419C9.37581 7.62174 9.31853 7.59397 9.26143 7.55203C9.18992 7.49946 9.1071 7.48008 9.02446 7.46032C8.60634 7.36059 8.17855 7.32425 7.75441 7.26367C7.11173 7.17196 6.46467 7.17308 5.81743 7.16413C5.27125 7.15667 4.72506 7.09516 4.17943 7.1028C3.32495 7.11454 2.48999 7.25696 1.71834 7.66107C1.4447 7.80442 1.21393 8.0061 1.04774 8.27639C1.00615 8.34386 0.968205 8.41134 1.04136 8.48534C1.07091 8.51535 1.04482 8.54946 1.03169 8.58003C0.960543 8.74463 1.0222 8.99068 1.16322 9.10009C1.23692 9.15732 1.28854 9.23039 1.3367 9.31166C1.41478 9.44344 1.5474 9.51595 1.68167 9.57001C1.78036 9.60971 1.85552 9.6593 1.92958 9.74131C2.04889 9.87366 2.18498 10.0004 2.38072 10.011C2.43362 10.0138 2.47613 10.0349 2.51608 10.0761C2.61477 10.1779 2.73353 10.2543 2.85794 10.3177C2.94642 10.3628 3.0203 10.4105 3.03617 10.5207C3.0453 10.5846 3.08652 10.637 3.13049 10.6772C3.27406 10.8088 3.40777 10.9591 3.6192 10.9796C3.67156 10.9846 3.72045 11.007 3.72629 11.0743C3.72702 11.0827 3.73304 11.0927 3.7396 11.0981C3.9182 11.2458 4.05757 11.4502 4.31406 11.4834C4.40381 11.495 4.49393 11.5343 4.53936 11.6361C4.56927 11.7032 4.63641 11.7375 4.69788 11.7709C4.79895 11.8257 4.89089 11.8825 4.91716 12.0119C4.93029 12.0766 4.98411 12.1252 5.0091 12.1904C5.08535 12.3886 5.12932 12.6043 5.29113 12.7605C5.34713 12.8145 5.3984 12.8647 5.47629 12.8878C5.58903 12.9213 5.66492 12.9881 5.72147 13.1088C5.81469 13.3081 5.98033 13.4507 6.20307 13.4815C6.35193 13.502 6.46084 13.5536 6.54439 13.6872C6.65111 13.858 6.77735 14.0127 6.99753 14.0425C7.1017 14.0567 7.20367 14.0451 7.30565 14.0384C7.37698 14.0338 7.4266 14.0442 7.48297 14.0998C7.58476 14.2002 7.7079 14.2507 7.86059 14.25C8.02221 14.2492 8.1448 14.1943 8.26064 14.0876C8.3068 14.0451 8.37302 14.0332 8.4469 14.05C8.55088 14.0737 8.65942 14.1081 8.76742 14.0593C8.81011 14.0401 8.85298 14.0369 8.90004 14.0412C9.03029 14.0528 9.11166 13.9614 9.19575 13.8815C9.23644 13.8427 9.28076 13.814 9.33038 13.789C9.56498 13.6708 9.68502 13.4597 9.75616 13.2157C9.81527 13.0128 9.79484 12.8033 9.78298 12.5962C9.77951 12.5368 9.77933 12.5049 9.84847 12.5185C9.87237 12.5232 9.89991 12.5211 9.91724 12.5017C9.97161 12.4412 9.98675 12.4687 9.99423 12.5325C9.99587 12.5467 10.005 12.5467 10.0066 12.5325C10.0141 12.4687 10.0293 12.4412 10.0836 12.5017C10.1009 12.5209 10.1285 12.5232 10.1524 12.5185C10.2215 12.5049 10.2213 12.5368 10.2179 12.5962C10.2058 12.8033 10.1856 13.0128 10.2447 13.2157C10.3158 13.4597 10.4359 13.6708 10.6705 13.789C10.7203 13.8142 10.7644 13.8429 10.8051 13.8815C10.8892 13.9614 10.9706 14.0528 11.1008 14.0412C11.1479 14.0369 11.1909 14.0401 11.2334 14.0593C11.3414 14.1081 11.45 14.0737 11.554 14.05C11.6278 14.0332 11.6941 14.0451 11.7402 14.0876C11.8562 14.1943 11.9786 14.2492 12.1403 14.25C12.293 14.2507 12.4163 14.2 12.5179 14.0998C12.5741 14.0444 12.6237 14.0338 12.6952 14.0384C12.7974 14.0451 12.8993 14.0567 13.0033 14.0425C13.2235 14.0125 13.3498 13.858 13.4565 13.6872C13.54 13.5536 13.6489 13.502 13.7978 13.4815C14.0205 13.4507 14.186 13.3081 14.2794 13.1088C14.3359 12.9881 14.4116 12.9213 14.5246 12.8878C14.6023 12.8647 14.6535 12.8145 14.7097 12.7605C14.8715 12.6043 14.9155 12.3886 14.9918 12.1904C15.0169 12.1252 15.0706 12.0766 15.0837 12.0119C15.11 11.8825 15.2019 11.8257 15.303 11.7709C15.3643 11.7375 15.4316 11.7032 15.4615 11.6361C15.5069 11.5343 15.597 11.495 15.6868 11.4834C15.9433 11.4502 16.0827 11.2458 16.2613 11.0981C16.2678 11.0927 16.2738 11.0827 16.2746 11.0743C16.2804 11.007 16.3293 10.9846 16.3817 10.9796C16.5929 10.9591 16.7268 10.8088 16.8704 10.6772C16.9143 10.637 16.9556 10.5844 16.9647 10.5207C16.9806 10.4105 17.0544 10.3628 17.1429 10.3177C17.2675 10.2543 17.3863 10.1779 17.4848 10.0761C17.5245 10.0351 17.5672 10.014 17.6201 10.011C17.8159 10.0004 17.952 9.87347 18.0713 9.74131C18.1453 9.6593 18.2205 9.60953 18.3192 9.57001C18.4535 9.51595 18.5859 9.44344 18.6642 9.31166C18.7123 9.23057 18.7638 9.15732 18.8376 9.10009C18.9787 8.99068 19.0403 8.74463 18.9692 8.58003C18.9559 8.54946 18.93 8.51517 18.9595 8.48534H18.9588Z" fill="#DFB783"/>
</svg>

<svg xmlns="http://www.w3.org/2000/svg" viewBox="0 0 20 20">
  <rect width="100%" height="100%" fill="#1C1D34"/>
  <path fill="#DFB783" d="M18.96 8.49c.07-.08.03-.15 0-.21a1.7 1.7 0 0 0-.68-.62c-.77-.4-1.6-.55-2.46-.56-.54 0-1.1.06-1.64.06-.64.01-1.3.01-1.93.1-.43.06-.86.1-1.27.2-.09.02-.17.04-.24.1-.06.03-.12.06-.14-.05a.1.1 0 0 0-.04-.05c-.04-.03-.06-.06-.05-.11a.1.1 0 0 0-.04-.1c-.07-.03-.05-.08-.02-.14.06-.16-.01-.3-.18-.34-.13-.03-.15-.06-.1-.2.07-.29.2-.56.35-.82.34-.6.79-1.11 1.23-1.63l.4-.52c.01-.03.04-.06 0-.09-.03-.03-.06 0-.08.02a.94.94 0 0 0-.1.14c-.23.42-.56.77-.86 1.14-.34.43-.64.87-.86 1.37-.06.12-.1.25-.14.39-.02-.09-.02-.18-.11-.21-.09.03-.09.12-.11.2-.05-.13-.08-.26-.14-.38a6.3 6.3 0 0 0-.86-1.37c-.3-.37-.62-.72-.86-1.14a.94.94 0 0 0-.1-.14c-.02-.02-.05-.05-.09-.02-.03.03 0 .06.01.09l.4.52c.44.52.89 1.03 1.23 1.63.15.26.28.53.36.83.04.13.02.16-.11.19-.17.03-.24.18-.18.34.03.06.05.1-.02.15a.1.1 0 0 0-.04.09c0 .05 0 .08-.05.1a.1.1 0 0 0-.04.06c-.02.11-.08.08-.14.04-.07-.05-.15-.07-.24-.09-.41-.1-.84-.14-1.27-.2-.64-.09-1.29-.09-1.93-.1-.55 0-1.1-.06-1.64-.06-.86.01-1.69.16-2.46.56-.28.14-.5.35-.67.62-.04.06-.08.13 0 .2.02.04 0 .07-.02.1-.07.16 0 .41.13.52.08.06.13.13.18.21.07.13.2.2.34.26.1.04.18.09.25.17.12.13.25.26.45.27.05 0 .1.02.14.07.1.1.21.17.34.24.09.04.16.1.18.2 0 .06.05.12.09.16.14.13.28.28.49.3.05 0 .1.03.1.1l.02.02c.18.15.32.35.57.38.1.01.18.05.23.16.03.06.1.1.16.13.1.06.2.11.22.24.01.07.06.12.09.18.08.2.12.41.28.57.06.05.1.1.19.13.1.03.18.1.24.22.1.2.26.34.48.37.15.02.26.07.34.2.11.18.24.33.46.36.1.02.2 0 .3 0 .08 0 .13 0 .18.06.1.1.23.15.38.15.16 0 .28-.06.4-.16.05-.04.11-.06.19-.04.1.02.2.06.32 0a.25.25 0 0 1 .13 0c.13 0 .21-.09.3-.17a.54.54 0 0 1 .13-.1c.23-.1.36-.32.43-.56.06-.2.03-.42.02-.62 0-.06 0-.1.07-.08.02 0 .05 0 .07-.02.05-.06.07-.03.07.03 0 .02.02.02.02 0 0-.06.02-.09.07-.03.02.02.05.02.07.02.07-.02.07.02.07.08-.01.2-.03.41.02.62.08.24.2.45.43.57.05.02.1.05.14.1.08.07.16.16.3.15.04 0 .08 0 .12.02.11.05.22.01.32-.01.08-.02.14 0 .19.04.12.1.24.16.4.16.15 0 .28-.05.38-.15.05-.06.1-.07.18-.06.1 0 .2.02.3 0 .22-.03.35-.18.46-.35.08-.14.19-.19.34-.2a.62.62 0 0 0 .48-.38.37.37 0 0 1 .24-.22c.08-.03.13-.08.19-.13.16-.16.2-.37.28-.57.03-.06.08-.11.1-.18.02-.13.11-.18.21-.24.06-.03.13-.07.16-.13.05-.1.14-.15.23-.16.25-.03.4-.23.57-.38l.01-.03c.01-.06.06-.09.11-.09.21-.02.35-.17.49-.3.04-.04.09-.1.1-.16.01-.1.08-.16.17-.2.13-.07.25-.14.34-.24a.2.2 0 0 1 .14-.07c.2-.01.33-.14.45-.27a.63.63 0 0 1 .25-.17.66.66 0 0 0 .34-.26c.05-.08.1-.15.18-.21.14-.1.2-.36.13-.52-.01-.03-.04-.06-.01-.1Z"/>
</svg>
